X: 32241
T: Pibddawns Llewelyn Alaw
R: hornpipe
M: 4/4
K: Gmajor
D>G|B>B,D>G B>B (3BAG|c>DF>A c>c (3cBA|B>B,D>G B>B (3BAG|d>DF>A (3ded (3cBA|
B>B,D>G B>B (3BAG|c>DF>A c>c (3cBA|B>B,D>G A>A,D>F|G2B2G2:|
B>c|d>DG>B d>d (3dcB|e>EG>ce4|c>DF>A c>c (3cBA|d>DG>Bd4|
B>B,D>G B>B (3BAG|c>DF>A c>c (3cBA|B>B,D>G A>A,D>F|G2B2G2:|

